icons/breezeDark/actions/16/path-union.svg

<svg viewBox="0 0 16 16" xmlns="http://www.w3.org/2000/svg"><g fill="#c0c0c0"><path d="m9.4999993 2.972656a3.5000002 3.523926 0 0 0 -3.5000002 3.523926 3.5000002 3.523926 0 0 0 .0390631.503418h-3.0390622v6.041016h5.9999998v-3.0618044a3.5000002 3.523926 0 0 0 .5.0413 3.5000002 3.523926 0 0 0 3.5000002-3.5239256 3.5000002 3.523926 0 0 0 -3.5000002-3.523926z" fill-opacity=".5"/><path d="m9.5039062 2a4.5 4.5 0 0 0 -4.4667968 4h-3.0371094v8h8v-3.029297a4.5 4.5 0 0 0 4.003906-4.470703 4.5 4.5 0 0 0 -4.4999998-4.5zm-.0039062 1a3.5 3.5 0 0 1 3.5 3.5 3.5 3.5 0 0 1 -3.5 3.5 3.5 3.5 0 0 1 -.5-.0410156v3.0410156h-6v-6h3.0390625a3.5 3.5 0 0 1 -.0390625-.5 3.5 3.5 0 0 1 3.5-3.5z"/><path d="m8 7v-1h-1.000001v1z"/><path d="m10 7v-1h-1v1z"/><path d="m10 9v-1h-1v1z"/><g fill-rule="evenodd"><path d="m6.2871089 7.8789056-.9726559.2597656a4.4999998 4.4999995 0 0 0 .671875 1.1660154l.714844-.7128904a3.4999998 3.4999996 0 0 1 -.4140631-.7128906z"/><path d="m7.408203 9.2988272-.710937.7109378a4.4999998 4.4999995 0 0 0 1.164062.675781l.2597657-.9726563a3.4999998 3.4999996 0 0 1 -.7128907-.4140625z"/></g></g></svg>

<?xml version="1.0" encoding="UTF-8" standalone="no"?>
<svg
   xmlns:dc="http://purl.org/dc/elements/1.1/"
   xmlns:cc="http://creativecommons.org/ns#"
   xmlns:rdf="http://www.w3.org/1999/02/22-rdf-syntax-ns#"
   xmlns:svg="http://www.w3.org/2000/svg"
   xmlns="http://www.w3.org/2000/svg"
   xmlns:sodipodi="http://sodipodi.sourceforge.net/DTD/sodipodi-0.dtd"
   xmlns:inkscape="http://www.inkscape.org/namespaces/inkscape"
   viewBox="0 0 16 16"
   version="1.1"
   id="svg8"
   sodipodi:docname="path-union.svg"
   inkscape:version="0.92.4 (5da689c313, 2019-01-14)">
  <metadata
     id="metadata12">
    <rdf:RDF>
      <cc:Work
         rdf:about="">
        <dc:format>image/svg+xml</dc:format>
        <dc:type
           rdf:resource="http://purl.org/dc/dcmitype/StillImage" />
        <dc:title></dc:title>
      </cc:Work>
    </rdf:RDF>
  </metadata>
  <sodipodi:namedview
     pagecolor="#ffffff"
     bordercolor="#666666"
     borderopacity="1"
     objecttolerance="10"
     gridtolerance="10"
     guidetolerance="10"
     inkscape:pageopacity="0"
     inkscape:pageshadow="2"
     inkscape:window-width="1835"
     inkscape:window-height="1058"
     id="namedview10"
     showgrid="true"
     inkscape:zoom="29.5"
     inkscape:cx="2.8513456"
     inkscape:cy="2.9316683"
     inkscape:window-x="77"
     inkscape:window-y="-8"
     inkscape:window-maximized="1"
     inkscape:current-layer="svg8">
    <inkscape:grid
       type="xygrid"
       id="grid874"
       empspacing="4" />
  </sodipodi:namedview>
  <defs
     id="defs3051">
    <style
       type="text/css"
       id="current-color-scheme">
      .ColorScheme-Text {
        color:#c0c0c0;
      }
      </style>
  </defs>
  <path
     style="color:#c0c0c0;fill:currentColor;fill-opacity:0.5;stroke:none;stroke-width:1.00341225"
     d="M 9.4999993,2.972656 A 3.5000002,3.523926 0 0 0 5.9999991,6.496582 3.5000002,3.523926 0 0 0 6.0390622,7 H 3 v 6.041016 H 8.9999998 V 9.9792116 a 3.5000002,3.523926 0 0 0 0.5,0.0413 A 3.5000002,3.523926 0 0 0 13,6.496586 3.5000002,3.523926 0 0 0 9.4999998,2.97266 Z"
     id="path6"
     inkscape:connector-curvature="0" />
  <path
     style="color:#c0c0c0;fill:currentColor;fill-opacity:1;stroke:none"
     d="M 9.5039062 2 A 4.5 4.5 0 0 0 5.0371094 6 L 2 6 L 2 14 L 10 14 L 10 10.970703 A 4.5 4.5 0 0 0 14.003906 6.5 A 4.5 4.5 0 0 0 9.5039062 2 z M 9.5 3 A 3.5 3.5 0 0 1 13 6.5 A 3.5 3.5 0 0 1 9.5 10 A 3.5 3.5 0 0 1 9 9.9589844 L 9 13 L 3 13 L 3 7 L 6.0390625 7 A 3.5 3.5 0 0 1 6 6.5 A 3.5 3.5 0 0 1 9.5 3 z "
     id="path906" />
  <path
     style="color:#c0c0c0;fill:currentColor;fill-opacity:1;stroke:none"
     d="M 8,7 V 6 H 6.999999 v 1 z"
     id="path927" />
  <path
     style="color:#c0c0c0;fill:currentColor;fill-opacity:1;stroke:none"
     d="M 10,7 V 6 H 9 v 1 z"
     id="path925" />
  <path
     style="color:#c0c0c0;fill:currentColor;fill-opacity:1;stroke:none"
     d="M 10,9 V 8 H 9 v 1 z"
     id="path923" />
  <path
     style="fill:#c0c0c0;fill-opacity:1;fill-rule:evenodd;stroke:none;stroke-width:0.99999994;stroke-miterlimit:4;stroke-dasharray:none;stroke-opacity:0.00427348"
     d="M 6.2871089,7.8789056 5.314453,8.1386712 A 4.4999998,4.4999995 0 0 0 5.986328,9.3046866 L 6.701172,8.5917962 A 3.4999998,3.4999996 0 0 1 6.2871089,7.8789056 Z"
     id="path4691" />
  <path
     style="fill:#c0c0c0;fill-opacity:1;fill-rule:evenodd;stroke:none;stroke-width:0.99999994;stroke-miterlimit:4;stroke-dasharray:none;stroke-opacity:0.00427348"
     d="M 7.408203,9.2988272 6.697266,10.009765 a 4.4999998,4.4999995 0 0 0 1.164062,0.675781 L 8.1210937,9.7128897 A 3.4999998,3.4999996 0 0 1 7.408203,9.2988272 Z"
     id="path931" />
</svg>
